X:175
T:B175-  Grim King of the Ghosts
Q:1/4=120
L:1/4
M:3/4
K:Am
E|A^GA|cBA|B2E|cBe|\
c3/2B/2A|A2E|A^GA|cBA|\
B2E|cBe|c3/2B/2A|A2":s:"d|\
eeA|fe(d/2c/2)|d2e/2d/2|c3/2B/2c|\
Adc|B2E/2E/2|A^GA|cBA|\
B2E|cBe|c3/2B/2A|":s:"A2|]
